X: 1
T: Devon
C: Jackie Tolliday-Bailey
K: Dmin
L:1/8
M:4/4
%%text Transpose +2 for F pipes, or -2 for Bb whistle
FE | D2 DE FEFG | ABAF D2 FD | E2 EF GECE | GFED C2 FE | 
D2 DE FEFG | A2 d2 d2 A2 | B3 AGFC | DEFE D4 ||
A2 d2 defe | dedc A2 A2 | B3  A GABG | ABAF D4 |
A2 d2 defe | dedc A2 A2 | G3 F E2 C2 | EFGF D4 |]

